16x16/apps/torii-srs.svg

<svg xmlns="http://www.w3.org/2000/svg" width="16" height="16" version="1.1">
 <rect style="fill:#f4f4f7" width="15" height="15" x="1" y="1" rx="1.5" ry="1.5"/>
 <path style="fill:#159eed" d="M 2.5,4.0505 C 3.1075685,4.7035164 3.767362,5.3772967 4.4042969,6 H 6 V 7 H 4 v 1 h 2 v 5 H 7 V 8 h 3 v 5 h 1 V 8 h 2 V 7 H 11 V 6 h 1.662109 C 13.226325,5.454018 13.797616,4.8420634 14.349609,4.2829219 14.84129,3.8834066 13.991108,4.1331898 13.736328,4.1325312 12.000425,4.395281 10.246971,4.4341149 8.4941406,4.4255 6.4609363,4.4664095 4.3595956,4.2592272 2.5,4.0505 Z M 7,6 H 8 V 7 H 7 Z m 2,0 h 1 V 7 H 9 Z"/>
</svg>

<svg xmlns="http://www.w3.org/2000/svg" width="16" height="16"><rect style="fill:#f4f4f7" width="15" height="15" x="1" y="1" rx="1.5" ry="1.5"/><path style="fill:#159eed" d="M2.5 4.05A58.687 58.687 0 0 0 4.404 6H6v1H4v1h2v5h1V8h3v5h1V8h2V7h-2V6h1.662c.564-.546 1.136-1.158 1.688-1.717.491-.4-.359-.15-.614-.15-1.736.262-3.489.301-5.242.293-2.033.04-4.134-.167-5.994-.375zM7 6h1v1H7zm2 0h1v1H9z"/></svg>
